!!!OTL: Malbruck (4-30), S. 42
!!!id: P0591
**kern
*clefG2
*k[]
*G:
{4b
=1
4b
4b
8b
8a
4b
=2
2cc
2b}
=3
{4a
4g
4a
4g
=4
8a
8a
4a
4g}
=5
{4b
=6
4b
4b
4a
4b
=7
2cc
4b}
=8
{4dd
=9
4b
4g
8a
8a
4a
=10
2.g}
=11
{4dd
=12
4dd
4dd
8ee
8ee
4ee
=13
2dd
4b}
=14
{4dd
=15
4dd
4dd
8ee
8ee
4ee
=16
2dd}
4r
==
*-
!!!minrhy: 8
!!!meters: 4/4 ]  ZZ[6
!!!cut: Malbruck (4-30), S. 42
!!!reg: Lothringen
!!!trd: PINCK, Louis: Verklingende Weisen Bd 4, Kassel 1939
!!!rhy1: X_  X_X_XXX_  X__X__
!!!rhy2: X_X_X_X_  XXX_X_
!!!key: P0591  08  G 4/4 ]  ZZ[6
!!!mod: SECHSTONSKALA DUR ?]  AMBITUS[6
!!!kad: 313135
!!!akz: 3343_2221_3243_3211_5653_565_
!!!fot: 'a__b__c__d__e__e__
!!!for: 'a__b__c__aw_av_aw_
!!!fok: '-__\__-__\__\__-__
!! PHRAS[VORWIEGEND AUFTAKTIG]
!!!fkt: Kriegslied, historisches Lied
!! LOTH VKL
!! PR[32] 2K[4] 2G[14] 3K[4] 3G[4] 4A[4] 4Ü[0] 5A[0] 6K[0] 6G[0]
!! 7K[0] 7G[0] 8A[0] MEHR[0] SI[29] ABS[28] SR[18] SP[11]
!! ST[7] 2k[7] 2g[29] 3k[4] 3g[0] 4d[0] 4ü[0] 5d[0] 6k[0] 6g[0]
!! 7k[0] 7g[0] 8d[0] mehr[0] si[39] dm[-10] sr[36] sp[4]
!! 1F[47] 2F[40] 3F[10] 4F[0] LF[0] 2P[0] 3P[3] 4P[0] TRI[0] DF[4] AB[30]
!! TF[0] U3K[0] U3[0] U4[0] U4Ü[0] U5[0] U6K[0] U6[0] U7K[0] U7[0]
!! N1[10] N2K[0] N2[10] N3K[0] N3[24] N4[10] N4Ü[0] N5[24] N6K[0] N6[17]
!!!n7k: 0] N7[0] O1[3] O2K[0] O2[0] O3K[0] O3[0] HÖ[0
